app/assets/images/heroicons/micro/square-3-stack-3d.svg

<svg width="16" height="16" viewBox="0 0 16 16" fill="none" xmlns="http://www.w3.org/2000/svg">
<path d="M7.6279 1.09882C7.85847 0.967061 8.14153 0.967061 8.3721 1.09882L13.6221 4.09882C13.8558 4.23235 14 4.48086 14 4.75C14 5.01914 13.8558 5.26765 13.6221 5.40118L8.3721 8.40118C8.14153 8.53294 7.85847 8.53294 7.6279 8.40118L2.3779 5.40118C2.14421 5.26765 2 5.01914 2 4.75C2 4.48086 2.14421 4.23235 2.3779 4.09882L7.6279 1.09882Z" fill="black"/>
<path d="M2.5704 7.23926L2.3779 7.34926C2.14421 7.48279 2 7.7313 2 8.00044C2 8.26959 2.14421 8.51809 2.3779 8.65163L7.6279 11.6516C7.85847 11.7834 8.14153 11.7834 8.3721 11.6516L13.6221 8.65163C13.8558 8.51809 14 8.26959 14 8.00044C14 7.7313 13.8558 7.48279 13.6221 7.34926L13.4296 7.23926L9.11631 9.70399C8.42459 10.0993 7.57541 10.0993 6.88369 9.70399L2.5704 7.23926Z" fill="black"/>
<path d="M2.3779 10.5993L2.5704 10.4893L6.88369 12.954C7.57541 13.3493 8.42459 13.3493 9.11631 12.954L13.4296 10.4893L13.6221 10.5993C13.8558 10.7328 14 10.9813 14 11.2504C14 11.5196 13.8558 11.7681 13.6221 11.9016L8.3721 14.9016C8.14153 15.0334 7.85847 15.0334 7.6279 14.9016L2.3779 11.9016C2.14421 11.7681 2 11.5196 2 11.2504C2 10.9813 2.14421 10.7328 2.3779 10.5993Z" fill="black"/>
</svg>

<svg xmlns="http://www.w3.org/2000/svg" viewBox="0 0 16 16" fill="currentColor" aria-hidden="true" data-slot="icon">
  <path d="M7.628 1.099a.75.75 0 0 1 .744 0l5.25 3a.75.75 0 0 1 0 1.302l-5.25 3a.75.75 0 0 1-.744 0l-5.25-3a.75.75 0 0 1 0-1.302l5.25-3Z"/>
  <path d="m2.57 7.24-.192.11a.75.75 0 0 0 0 1.302l5.25 3a.75.75 0 0 0 .744 0l5.25-3a.75.75 0 0 0 0-1.303l-.192-.11-4.314 2.465a2.25 2.25 0 0 1-2.232 0L2.57 7.239Z"/>
  <path d="m2.378 10.6.192-.11 4.314 2.464a2.25 2.25 0 0 0 2.232 0l4.314-2.465.192.11a.75.75 0 0 1 0 1.303l-5.25 3a.75.75 0 0 1-.744 0l-5.25-3a.75.75 0 0 1 0-1.303Z"/>
</svg>
